X: 19077
T: Irish Girl, The
R: strathspey
M: 4/4
K: Dmajor
F>GF>E D>EF>D|E>A, ~A,2 E>A, (3A,A,A,|F>GF>E D>EF>A|(3Bcd e>c d>cB>A|
F2 F>E D>E (3FED|E>A, ~A,2 A,>CE>G|F>GF>E D>EF>A|(3Bcd e>g f<dd>e||
f>dd>c d>fa>f|e>dc>d e>fg>e|f>dd>c d>fa>f|(3gab e>g f<dd>e|
f>dd>c d>fa>f|e>dc>d e>f (3gfe|d>fa>f g2 b>g|(3fga e>c d>cB>A||

